svgs/1F9D0.svg

<svg xmlns="http://www.w3.org/2000/svg" xmlns:xlink="http://www.w3.org/1999/xlink" preserveAspectRatio="none" viewBox="0 0 72 72"><defs><path id="a" fill="#FCC21B" d="M36 5.6q-22.2 0-30.95 20.5Q.25 37.35.25 52.45q0 5.8 10.45 9.9 10.5 4.1 25.3 4.1t25.25-4.1q10.45-4.1 10.45-9.9 0-15.1-4.8-26.35Q58.2 5.6 36 5.6z"/><path id="g" fill="#2F2F2F" d="M24.05 40.1q1.9-.05 3.25-1.65 1.3-1.6 1.25-3.85-.05-2.3-1.4-3.85-1.35-1.6-3.25-1.55-1.9.05-3.2 1.65-1.35 1.65-1.3 3.9.05 2.25 1.4 3.8 1.35 1.6 3.25 1.55z"/><path id="h" fill="#2F2F2F" d="M24.05 40.1q1.9-.05 3.25-1.65 1.3-1.6 1.25-3.85-.05-2.3-1.4-3.85-1.35-1.6-3.25-1.55-1.9.05-3.2 1.65-1.35 1.65-1.3 3.9.05 2.25 1.4 3.8 1.35 1.6 3.25 1.55z"/><path id="b" fill="none" stroke="#2F2F2F" stroke-linecap="round" stroke-linejoin="round" stroke-width="3" d="M41.4 21.5q3.6-2.75 6.85-3.55 3.25-.85 7.25 3.25m-38.95 3.25q4.1-3.75 12.3.4m-3.05 23.1q10.5-4.05 20.45 0"/><path id="c" fill="none" stroke="#626364" stroke-linecap="round" stroke-linejoin="round" stroke-width="2" d="M59.15 30.05q8.45.65 6.9 16-.75 7.35 2.65 11.65"/><path id="d" fill="none" stroke="#2F2F2F" stroke-linecap="round" stroke-linejoin="round" stroke-width="3" d="M57.3 26.7q1.45 2.2 1.45 4.95t-1.45 4.9"/><path id="e" fill="none" stroke="#2F2F2F" stroke-linecap="round" stroke-linejoin="round" stroke-width="2" d="M56.3 26.85q1.35 2.1 1.35 4.75v.2q-.05 2.7-1.55 4.85"/><path id="f" fill="none" stroke="#626364" stroke-linecap="round" stroke-linejoin="round" stroke-width="2" d="M56.1 36.65q-.5.65-1.1 1.25-2.6 2.65-6.3 2.65-3.65 0-6.3-2.65-2.6-2.6-2.6-6.3 0-3.7 2.6-6.35 2.65-2.6 6.3-2.6 3.7 0 6.3 2.6.75.75 1.3 1.6"/></defs><use xlink:href="#a"/><g><use xlink:href="#b"/><use xlink:href="#c"/></g><use transform="translate(.4 -1)" xlink:href="#d"/><g transform="translate(.4 -1)"><use xlink:href="#e"/><use xlink:href="#f"/></g><use transform="translate(-.7 -4.35)" xlink:href="#g"/><use transform="translate(24.75 -4.35)" xlink:href="#h"/></svg>

<svg xmlns="http://www.w3.org/2000/svg" version="1.1" xmlns:xlink="http://www.w3.org/1999/xlink" preserveAspectRatio="none" x="0px" y="0px" width="72px" height="72px" viewBox="0 0 72 72">
<defs>
<g id="Layer1_0_MEMBER_0_MEMBER_0_MEMBER_0_MEMBER_0_FILL">
<path fill="#FCC21B" stroke="none" d="
M 36 5.6
Q 13.8 5.6 5.05 26.1 0.25 37.35 0.25 52.45 0.25 58.25 10.7 62.35 21.2 66.45 36 66.45 50.8 66.45 61.25 62.35 71.7 58.25 71.7 52.45 71.7 37.35 66.9 26.1 58.2 5.6 36 5.6 Z"/>
</g>

<g id="Layer0_3_MEMBER_0_FILL">
<path fill="#2F2F2F" stroke="none" d="
M 24.05 40.1
Q 25.95 40.05 27.3 38.45 28.6 36.85 28.55 34.6 28.5 32.3 27.15 30.75 25.8 29.15 23.9 29.2 22 29.25 20.7 30.85 19.35 32.5 19.4 34.75 19.45 37 20.8 38.55 22.15 40.15 24.05 40.1 Z"/>
</g>

<g id="Layer0_3_MEMBER_1_FILL">
<path fill="#2F2F2F" stroke="none" d="
M 24.05 40.1
Q 25.95 40.05 27.3 38.45 28.6 36.85 28.55 34.6 28.5 32.3 27.15 30.75 25.8 29.15 23.9 29.2 22 29.25 20.7 30.85 19.35 32.5 19.4 34.75 19.45 37 20.8 38.55 22.15 40.15 24.05 40.1 Z"/>
</g>

<path id="Layer0_0_1_STROKES" stroke="#2F2F2F" stroke-width="3" stroke-linejoin="round" stroke-linecap="round" fill="none" d="
M 41.4 21.5
Q 45 18.75 48.25 17.95 51.5 17.1 55.5 21.2
M 16.55 24.45
Q 20.65 20.7 28.85 24.85
M 25.8 47.95
Q 36.3 43.9 46.25 47.95"/>

<path id="Layer0_0_2_STROKES" stroke="#626364" stroke-width="2" stroke-linejoin="round" stroke-linecap="round" fill="none" d="
M 59.15 30.05
Q 67.6 30.7 66.05 46.05 65.3 53.4 68.7 57.7"/>

<path id="Layer0_1_1_STROKES" stroke="#2F2F2F" stroke-width="3" stroke-linejoin="round" stroke-linecap="round" fill="none" d="
M 57.3 26.7
Q 58.75 28.9 58.75 31.65 58.75 34.4 57.3 36.55"/>

<path id="Layer0_2_1_STROKES" stroke="#2F2F2F" stroke-width="2" stroke-linejoin="round" stroke-linecap="round" fill="none" d="
M 56.3 26.85
Q 57.65 28.95 57.65 31.6 57.65 31.7 57.65 31.8 57.6 34.5 56.1 36.65"/>

<path id="Layer0_2_2_STROKES" stroke="#626364" stroke-width="2" stroke-linejoin="round" stroke-linecap="round" fill="none" d="
M 56.1 36.65
Q 55.6 37.3 55 37.9 52.4 40.55 48.7 40.55 45.05 40.55 42.4 37.9 39.8 35.3 39.8 31.6 39.8 27.9 42.4 25.25 45.05 22.65 48.7 22.65 52.4 22.65 55 25.25 55.75 26 56.3 26.85"/>
</defs>

<g id="_____1">
<g transform="matrix( 1, 0, 0, 1, 0,0) ">
<use xlink:href="#Layer1_0_MEMBER_0_MEMBER_0_MEMBER_0_MEMBER_0_FILL"/>
</g>
</g>

<g transform="matrix( 1, 0, 0, 1, 0,0) ">
<use xlink:href="#Layer0_0_1_STROKES"/>

<use xlink:href="#Layer0_0_2_STROKES"/>
</g>

<g transform="matrix( 1, 0, 0, 1, 0.4,-1) ">
<use xlink:href="#Layer0_1_1_STROKES"/>
</g>

<g transform="matrix( 1, 0, 0, 1, 0.4,-1) ">
<use xlink:href="#Layer0_2_1_STROKES"/>

<use xlink:href="#Layer0_2_2_STROKES"/>
</g>

<g transform="matrix( 1, 0, 0, 1, -0.7,-4.35) ">
<use xlink:href="#Layer0_3_MEMBER_0_FILL"/>
</g>

<g transform="matrix( 1, 0, 0, 1, 24.75,-4.35) ">
<use xlink:href="#Layer0_3_MEMBER_1_FILL"/>
</g>
</svg>
